X: 1731
T: Mr McCormick's Invention
C:Bob Rummery, Sorrento, WA
B: australian traditional tunes wiki
M:6/8
L:1/8
R: Jig
Q: 3/8=100
K:G
V:1 
|:"G"B2B Bcd|g2g gdB|"D7"cBc "G"dBG|dBG "D7"A2c|
"G"B2B Bcd|g2g gdB|"D7"cBc "G"dBG|1"D7"cAF "G"G2c:|2"D7"cAF "G"GB2||
|:"D"A2A ABc|"G"B2B Bcd|"C"g2g g2d|"D"f2e d3|
"C"e2e ece|"G"d2d dBG|"C"ABc "G"dBG|1cAF "G"GAB:|2"D7"cAF "G"G3||
% abcbook-tune_id 6342d53a6ac2e211348d5880


% abcbook-boost 0
% abcbook-tablature 
% abcbook-transpose 
% abcbook-lastupdated 1665324380551
% abcbook-soundfonts 
% abcbook-repeats 1
% NFF Book 2008

